X:1
T:Canon
T:Arr. Andrew Dunlap
%%score 1 2 3
L:1/8
Q:1/4=80
M:4/4
K:D
V:1 bass nm="Violoncello" snm="Vlc."
V:2 bass nm="Violoncello" snm="Vlc."
V:3 bass nm="Violoncello" snm="Vlc."
V:1
"^Pacabel Pop" z8 | z8 | z8 | z8 | z8 | z8 | z8 | E6 F2 | F4 E4 | D4 C4 | B,4 A,4 | B,4 C4 | %12
 D4 C4 | B,4 A,4 | G,4 F,4 | G,4 A,4 |"^Happy, Upbeat" z8 | z8 | F,4 A,4 | D,4 F,4 | B,,4 A,,4 | %21
 B,,4 C,4 | F,4 A,4 | D,4 F,4 | B,,4 A,,4 | B,,4 C,4 | F4 A4 | D4 F4 | B,4 A,4 | B,4 C4 | F4 A4 | %31
 D4 F4 | B,4 A,4 | B,4 C4 | D4 C4 | B,4 A,4 | G,4 F,4 | G,4 A,4 |"^Gradually Speed Up" D8- | D8- | %40
 D6"^Pull bow" D2 | z8 | z8 | z8 | z8 | z8 | z8 | z8 | z8 | z8 | z8 | z8 |] %52
V:2
 z8 | z8 | z8 | z8 | D,/D,/D,/ z/ A,,/A,,/A,,/ z/ B,,/B,,/B,,/ z/ F,,/F,,/F,,/ z/ | %5
 G,,/G,,/G,,/ z/ D,,/D,,/D,,/ z/ G,,/G,,/G,,/ z/ A,,/A,,/A,,/ z/ | %6
 D,/D,/D,/ z/ A,,/A,,/A,,/ z/ B,,/B,,/B,,/ z/ F,,/F,,/F,,/ z/ | %7
 G,,/G,,/G,,/ z/ D,,/D,,/D,,/ z/ G,,/G,,/G,,/ z/ A,,/A,,/A,,/ z/ | %8
 D,/D,/D,/ z/ A,,/A,,/A,,/ z/ B,,/B,,/B,,/ z/ F,,/F,,/F,,/ z/ | %9
 G,,/G,,/G,,/ z/ D,,/D,,/D,,/ z/ G,,/G,,/G,,/ z/ A,,/A,,/A,,/ z/ | %10
 D,/D,/D,/ z/ A,,/A,,/A,,/ z/ B,,/B,,/B,,/ z/ F,,/F,,/F,,/ z/ | %11
 G,,/G,,/G,,/ z/ D,,/D,,/D,,/ z/ G,,/G,,/G,,/ z/ A,,/A,,/A,,/ z/ | D,4 C,4 | B,,4 A,,4 | %14
 G,,4 F,,4 | G,,4 A,,3 A,, | %16
 D,/D,/4D,/4D,/ z/ A,,/A,,/4A,,/4A,,/ z/ B,,/B,,/4B,,/4B,,/ z/ F,,/F,,/4F,,/4F,,/ z/ | %17
 G,,/G,,/4G,,/4G,,/ z/ D,,/D,,/4D,,/4D,,/ z/ G,,/G,,/4G,,/4G,,/ z/ A,,/A,,/4A,,/4A,,/ z/ | %18
 F,2 z2 A,2 z2 | D,2 z2 F,2 z2 | B,,2 z2 A,,2 z2 | B,,2 z2 C,2 z2 | D,2 z2 C,2 z2 | %23
 B,,2 z2 A,,2 z2 | G,,2 z2 F,,2 z2 | G,,2 z2 A,,2 z2 | z2 F,/F,/F, z2 A,/A,/A, | %27
 z2 D,/D,/D, z2 F,/F,/F, | z2 B,,/B,,/B,, z2 A,,/A,,/A,, | z2 B,,/B,,/B,, z2 C,/C,/C, | %30
 z2 F,/F,/F, z2 A,/A,/A, | z2 F,/F,/F, z2 A,/A,/A, | z2 D,/D,/D, z2 C,/C,/C, | %33
 z2 D,/D,/D, z2 E,/E,/E, | z2 F,/F,/F, z2 E,/E,/E, | z2 D,/D,/D, z2 C,/C,/C, | %36
 z2 B,,/B,,/B,, z2 A,,/A,,/A,, | z2 B,,/B,,/B,, z2 C,/C,/C, | D,8- | D,8- | D,6 D,2 | z8 | z8 | %43
 z8 | z8 | z8 | z8 | z8 | z8 | z8 | z8 | z8 |] %52
V:3
!mp! D,2 A,,2 B,,2 F,,2 | G,,2 D,,2 G,,2 A,,2 |!<(! D,2 A,,2 B,,2 F,,2!<)! | G,,2 D,,2 G,,2 A,,2 | %4
!mf! D,2 A,,2 B,,2 F,,2 | G,,2 D,,2 G,,2 A,,2 | D,2 A,,2 B,,2 F,,2 | G,,2 D,,2 G,,2 A,,2 | %8
 D,2 A,,2 B,,2 F,,2 | G,,2 D,,2 G,,2 A,,2 | D,2 A,,2 B,,2 F,,2 | G,,2 D,,2 G,,2 A,,2 | F,4 E,4 | %13
 D,4 C,4 | B,,4 A,,4 | B,,4 C,3 C, |!f! F,2 C,2 D,2 A,,2 | B,,2 F,,2 B,,2 C,2 | z2 A,,2 z2 C,2 | %19
 z2 F,,2 z2 A,,2 | z2 D,,2 z2 C,,2 | z2 D,,2 z2 E,,2 | z2 D,2 z2 C,2 | z2 B,,2 z2 A,,2 | %24
 z2 G,,2 z2 F,,2 | z2 G,,2 z2 A,,2 | A,,2 A,,2 C,2 C,2 | F,,2 F,,2 A,,2 A,,2 | %28
 D,,2 D,,2 C,,2 C,,2 | D,,2 D,,2 E,,2 E,,2 | A,,2 A,,2 C,2 C,2 | A,,2 A,,2 C,2 C,2 | %32
 F,,2 F,,2 E,,2 E,,2 | F,,2 F,,2 G,,2 G,,2 | A,,2 A,,2 G,,2 G,,2 | F,,2 F,,2 E,,2 E,,2 | %36
 D,,2 D,,2 C,,2 C,,2 | D,,2 D,,2 E,,2 E,,2 | D,,8- | D,,8- | D,,6 D,,2 | z8 | z8 | z8 | z8 | z8 | %46
 z8 | z8 | z8 | z8 | z8 | z8 |] %52

